assets/images/paycheck.svg

<svg width="20" height="20" viewBox="0 0 20 20" fill="none" xmlns="http://www.w3.org/2000/svg">
<path d="M4.56407 11.5479C4.75922 11.5251 4.90125 11.484 4.99018 11.4247C5.14581 11.3196 5.22362 11.1381 5.22362 10.8801C5.22362 10.6838 5.15075 10.5285 5.005 10.4144C4.91855 10.3482 4.77157 10.2797 4.56407 10.2089V11.5479Z" fill="black"/>
<path d="M4.21206 7.96918C3.99715 7.97374 3.83782 8.0274 3.73407 8.13014C3.63032 8.23059 3.57845 8.36872 3.57845 8.54452C3.57845 8.7363 3.65626 8.88813 3.81188 9C3.89834 9.06164 4.03173 9.11872 4.21206 9.17123V7.96918Z" fill="black"/>
<path fill-rule="evenodd" clip-rule="evenodd" d="M1 3C0.447715 3 0 3.44772 0 4V15.75C0 16.3023 0.447716 16.75 1 16.75H19C19.5523 16.75 20 16.3023 20 15.75V4C20 3.44772 19.5523 3 19 3H1ZM4.57148 13H4.21206V12.3185C3.72543 12.2683 3.3623 12.1701 3.12269 12.024C2.70028 11.7614 2.49278 11.3139 2.50019 10.6815H3.50063C3.53522 10.9692 3.58339 11.1621 3.64514 11.2603C3.74148 11.4132 3.93045 11.5126 4.21206 11.5582V10.0959L3.91193 10.0137C3.44011 9.88584 3.10663 9.70776 2.91148 9.47945C2.71881 9.25114 2.62247 8.97603 2.62247 8.65411C2.62247 8.44178 2.65952 8.24886 2.73363 8.07534C2.81021 7.90183 2.91643 7.75228 3.05229 7.62671C3.22767 7.46461 3.42282 7.35274 3.63773 7.2911C3.76865 7.25228 3.9601 7.22374 4.21206 7.20548V6.75H4.56407V7.21233C4.96672 7.24201 5.28291 7.33333 5.51264 7.4863C5.93011 7.73059 6.14625 8.12671 6.16107 8.67466H5.18657C5.1668 8.47146 5.12975 8.32306 5.07541 8.22945C4.98154 8.06735 4.81109 7.97831 4.56407 7.96233V9.26712C5.15198 9.45434 5.54722 9.61986 5.74978 9.7637C6.08326 10.0034 6.25 10.3413 6.25 10.7774C6.25 11.3527 6.0215 11.7705 5.56451 12.0308C5.28538 12.1906 4.95436 12.2842 4.57148 12.3116V13ZM8.75 8C8.75 7.65482 9.02982 7.375 9.375 7.375H16.875C17.2202 7.375 17.5 7.65482 17.5 8C17.5 8.34518 17.2202 8.625 16.875 8.625H9.375C9.02982 8.625 8.75 8.34518 8.75 8ZM9.375 11.125C9.02982 11.125 8.75 11.4048 8.75 11.75C8.75 12.0952 9.02982 12.375 9.375 12.375H14.375C14.7202 12.375 15 12.0952 15 11.75C15 11.4048 14.7202 11.125 14.375 11.125H9.375Z" fill="black"/>
</svg>

<?xml version="1.0" encoding="utf-8"?>
<!-- Generator: Adobe Illustrator 24.0.2, SVG Export Plug-In . SVG Version: 6.00 Build 0)  -->
<svg version="1.1" id="Layer_1" xmlns="http://www.w3.org/2000/svg" xmlns:xlink="http://www.w3.org/1999/xlink" x="0px" y="0px"
	 viewBox="0 0 20 20" style="enable-background:new 0 0 20 20;" xml:space="preserve">
<style type="text/css">
	.st0{fill-rule:evenodd;clip-rule:evenodd;}
</style>
<g>
	<path class="st0" d="M4.6,10.2v1.3c0.2,0,0.3-0.1,0.4-0.1c0.2-0.1,0.2-0.3,0.2-0.5c0-0.2-0.1-0.4-0.2-0.5
		C4.9,10.3,4.8,10.3,4.6,10.2z"/>
	<path class="st0" d="M3.6,8.5c0,0.2,0.1,0.3,0.2,0.5C3.9,9.1,4,9.1,4.2,9.2V8C4,8,3.8,8,3.7,8.1C3.6,8.2,3.6,8.4,3.6,8.5z"/>
	<path class="st0" d="M19,3H1C0.4,3,0,3.4,0,4v11.8c0,0.6,0.4,1,1,1h18c0.6,0,1-0.4,1-1V4C20,3.4,19.6,3,19,3z M5.6,12
		c-0.3,0.2-0.6,0.3-1,0.3V13H4.2v-0.7c-0.5-0.1-0.8-0.1-1.1-0.3c-0.4-0.3-0.6-0.7-0.6-1.3h1c0,0.3,0.1,0.5,0.1,0.6
		c0.1,0.2,0.3,0.3,0.6,0.3v-1.5L3.9,10c-0.5-0.1-0.8-0.3-1-0.5C2.7,9.3,2.6,9,2.6,8.7c0-0.2,0-0.4,0.1-0.6c0.1-0.2,0.2-0.3,0.3-0.4
		c0.2-0.2,0.4-0.3,0.6-0.3c0.1,0,0.3-0.1,0.6-0.1V6.8h0.4v0.5c0.4,0,0.7,0.1,0.9,0.3c0.4,0.2,0.6,0.6,0.6,1.2h-1
		c0-0.2-0.1-0.4-0.1-0.4C5,8.1,4.8,8,4.6,8v1.3c0.6,0.2,1,0.4,1.2,0.5c0.3,0.2,0.5,0.6,0.5,1C6.2,11.4,6,11.8,5.6,12z M14.4,12.4h-5
		c-0.3,0-0.6-0.3-0.6-0.6s0.3-0.6,0.6-0.6h5c0.3,0,0.6,0.3,0.6,0.6S14.7,12.4,14.4,12.4z M16.9,8.6H9.4C9,8.6,8.8,8.3,8.8,8
		S9,7.4,9.4,7.4h7.5c0.3,0,0.6,0.3,0.6,0.6S17.2,8.6,16.9,8.6z"/>
</g>
</svg>
